components/AnnouncementBar/logos/color-doordash.svg

<svg width="350" height="41" viewBox="0 0 350 41" fill="none" xmlns="http://www.w3.org/2000/svg">
<path d="M101.532 11.5318V29.4068H105.989C108.287 29.3727 110.473 28.4102 112.05 26.7386C113.652 25.0423 114.529 22.7876 114.493 20.4545C114.562 18.114 113.695 15.8426 112.084 14.1431C110.5 12.4685 108.294 11.5227 105.989 11.5295H101.534L101.532 11.5318ZM105.989 5.92724C114.295 5.92724 120.58 12.3636 120.58 20.4545C120.58 28.5454 114.295 35.0181 105.989 35.0181H96.1591C95.9698 35.0157 95.7892 34.9383 95.6571 34.8027C95.525 34.6672 95.4521 34.4847 95.4545 34.2954V6.67951C95.4545 6.27951 95.7704 5.95451 96.1591 5.95451L105.989 5.92724ZM141.991 30.0296C145.764 30.0409 149.17 27.7204 150.623 24.15C152.076 20.586 151.294 16.5003 148.627 13.725C146.002 10.9897 141.962 10.1563 138.468 11.6295C134.982 13.1022 132.705 16.5863 132.698 20.4545C132.698 25.7272 136.852 30.0045 141.993 30.0296H141.991ZM141.993 5.26815C150.736 5.26815 157.42 12.1591 157.42 20.4545C157.42 28.75 150.736 35.6409 141.991 35.6409C133.248 35.6409 126.62 28.7841 126.62 20.4545C126.62 12.125 133.305 5.26815 141.991 5.26815H141.993ZM178.659 30.0295C183.802 30.0159 187.964 25.7341 187.959 20.4613C187.952 15.1841 183.782 10.9113 178.641 10.9091C173.495 10.9091 169.323 15.1795 169.316 20.4545C169.316 22.9954 170.3 25.4318 172.052 27.2272C173.785 29.0149 176.167 30.0256 178.657 30.0295H178.659ZM178.657 5.26815C187.373 5.26815 194.057 12.125 194.057 20.4545C194.057 28.7841 187.345 35.6409 178.657 35.6409C169.97 35.6409 163.23 28.7841 163.23 20.4545C163.23 12.125 169.914 5.26815 178.657 5.26815ZM214.443 11.5318H208.159V19.225H214.443C215.447 19.2695 216.424 18.8968 217.143 18.1954C217.87 17.4909 218.284 16.5136 218.293 15.4863C218.33 14.4332 217.936 13.4106 217.202 12.6545C216.481 11.9099 215.479 11.5046 214.443 11.5386V11.5318ZM202.08 6.67951C202.08 6.27951 202.398 5.95451 202.786 5.95451H214.618C220.259 5.95451 224.341 10.1931 224.341 15.5159C224.384 19.1159 222.418 22.4227 219.28 24.0341L224.736 33.9272C224.89 34.1591 224.901 34.4578 224.764 34.7C224.629 34.9387 224.368 35.0772 224.095 35.0545H219.307C219.036 35.0584 218.787 34.9063 218.666 34.6636L213.407 24.8727H208.136V34.2727C208.139 34.4624 208.067 34.6454 207.935 34.7815C207.802 34.9175 207.621 34.9953 207.432 34.9977H202.818C202.628 34.9953 202.448 34.9175 202.315 34.7815C202.183 34.6454 202.111 34.4624 202.114 34.2727L202.082 6.68178L202.08 6.67951ZM240.186 11.6681V29.5454H244.641C246.938 29.5143 249.125 28.5552 250.705 26.8863C252.308 25.1921 253.186 22.9389 253.152 20.6068C253.226 18.2633 252.361 15.9875 250.75 14.2841C249.163 12.6065 246.952 11.6604 244.643 11.6704L240.186 11.6681ZM244.641 6.05678C252.948 6.05678 259.232 12.5 259.232 20.6068C259.232 28.7136 252.948 35.1568 244.641 35.1568H234.841C234.651 35.1544 234.47 35.0766 234.338 34.9405C234.206 34.8045 234.133 34.6214 234.136 34.4318V6.81815C234.136 6.41587 234.452 6.09087 234.841 6.09087L244.643 6.05678H244.641ZM277.768 13.1659L274.32 22.725H281.209L277.768 13.1659ZM272.298 28.1272L270.041 34.4909C269.948 34.7989 269.658 35.0046 269.336 34.9909H264.441C264.187 35.0145 263.94 34.8978 263.798 34.6863C263.652 34.4727 263.629 34.1987 263.736 33.9636L274.314 6.37496C274.415 6.07599 274.703 5.88096 275.018 5.89769H280.495C280.811 5.87992 281.101 6.07514 281.202 6.37496L291.78 33.9636C291.886 34.199 291.862 34.4731 291.716 34.6863C291.573 34.8969 291.326 35.0128 291.073 34.9886H286.18C285.858 35.0024 285.568 34.7966 285.475 34.4886L283.218 28.125H272.298V28.1272ZM297.455 13.7863C297.455 9.21815 301.305 5.26815 307.384 5.26815C310.658 5.19504 313.828 6.41971 316.202 8.67496C316.348 8.8132 316.431 9.00555 316.431 9.20678C316.431 9.40801 316.348 9.60036 316.202 9.7386L313.491 12.5C313.36 12.6355 313.179 12.712 312.991 12.712C312.802 12.712 312.622 12.6355 312.491 12.5C311.214 11.303 309.537 10.6248 307.786 10.5977C305.355 10.5977 303.557 12.0454 303.557 13.7159C303.557 19.1159 317.927 16 317.927 26.3909C317.92 31.6568 314.041 35.6409 307.182 35.6409C303.333 35.6803 299.634 34.1565 296.93 31.4181C296.783 31.2799 296.7 31.0876 296.7 30.8863C296.7 30.6851 296.783 30.4927 296.93 30.3545L299.552 27.6636C299.684 27.5214 299.87 27.4406 300.064 27.4406C300.258 27.4406 300.443 27.5214 300.575 27.6636C302.226 29.2998 304.449 30.229 306.773 30.2545C309.811 30.2545 311.814 28.5909 311.814 26.5068C311.814 21.1045 297.45 24.2227 297.45 13.8295L297.455 13.7863ZM343.986 6.64315V17.5613H331.823V6.64315C331.825 6.45387 331.752 6.27139 331.62 6.13585C331.488 6.00031 331.307 5.92281 331.118 5.92042H326.505C326.315 5.92281 326.135 6.00031 326.003 6.13585C325.87 6.27139 325.798 6.45387 325.8 6.64315V34.2272C325.8 34.6272 326.118 34.9522 326.505 34.9522H331.118C331.505 34.9522 331.823 34.6272 331.823 34.2272V23.1363H343.977V34.2272C343.977 34.6272 344.295 34.9522 344.682 34.9522H349.295C349.684 34.9522 350 34.6272 350 34.2272V6.64315C350.002 6.45387 349.93 6.27139 349.797 6.13585C349.665 6.00031 349.485 5.92281 349.295 5.92042H344.682C344.291 5.93034 343.981 6.25248 343.986 6.64315ZM69.5568 9.60224C66.3568 3.67042 60.0954 -0.0227638 53.2863 -0.000140797H1.76817C1.05692 0.00285053 0.416267 0.430551 0.140892 1.08633C-0.130633 1.73832 0.0203913 2.48984 0.522711 2.98633L11.7454 14.1227C12.7363 15.1091 14.0863 15.6613 15.4909 15.6613H51.8091C54.3977 15.6341 56.5136 17.6841 56.5409 20.2363C56.5682 22.7886 54.4932 24.8795 51.9045 24.9045H26.8659C26.1541 24.9048 25.5115 25.3308 25.2341 25.9863C24.9599 26.6391 25.1102 27.393 25.6136 27.8909L36.8432 39.0363C37.8403 40.0222 39.1864 40.5744 40.5886 40.5727H51.9136C66.6477 40.5727 77.7886 25.0272 69.5568 9.59542" fill="#FF3008"/>
</svg>

<svg xmlns="http://www.w3.org/2000/svg" width="350" height="41" viewBox="0 0 350 41">
  <path fill="#FF3008" d="M101.532 11.532v17.875h4.457a8.506 8.506 0 0 0 6.061-2.668 8.952 8.952 0 0 0 2.443-6.285 8.797 8.797 0 0 0-2.409-6.31 8.356 8.356 0 0 0-6.095-2.614h-4.455l-.002.002Zm4.457-5.605c8.306 0 14.591 6.437 14.591 14.527 0 8.091-6.285 14.564-14.591 14.564h-9.83a.713.713 0 0 1-.705-.723V6.68c0-.4.316-.725.705-.725l9.83-.028Zm36.002 24.103c3.773.01 7.179-2.31 8.632-5.88a9.74 9.74 0 0 0-1.996-10.425 9.152 9.152 0 0 0-10.159-2.095c-3.486 1.472-5.763 4.956-5.77 8.824 0 5.273 4.154 9.55 9.295 9.576h-.002Zm.002-24.762c8.743 0 15.427 6.891 15.427 15.186 0 8.296-6.684 15.187-15.429 15.187-8.743 0-15.371-6.857-15.371-15.186 0-8.33 6.685-15.187 15.371-15.187h.002Zm36.666 24.761c5.143-.013 9.305-4.295 9.3-9.568-.007-5.277-4.177-9.55-9.318-9.552-5.146 0-9.318 4.27-9.325 9.545a9.7 9.7 0 0 0 2.736 6.773 9.219 9.219 0 0 0 6.605 2.802h.002Zm-.002-24.76c8.716 0 15.4 6.856 15.4 15.185 0 8.33-6.712 15.187-15.4 15.187-8.687 0-15.427-6.857-15.427-15.186 0-8.33 6.684-15.187 15.427-15.187Zm35.786 6.263h-6.284v7.693h6.284a3.635 3.635 0 0 0 2.7-1.03 3.816 3.816 0 0 0 1.15-2.709 3.87 3.87 0 0 0-1.091-2.832 3.673 3.673 0 0 0-2.759-1.115v-.007ZM202.08 6.68c0-.4.318-.725.706-.725h11.832c5.641 0 9.723 4.238 9.723 9.56.043 3.6-1.923 6.908-5.061 8.52l5.456 9.892a.74.74 0 0 1 .028.773.702.702 0 0 1-.669.354h-4.788a.705.705 0 0 1-.641-.39l-5.259-9.791h-5.271v9.4a.714.714 0 0 1-.704.725h-4.614a.715.715 0 0 1-.704-.725l-.032-27.591-.002-.002Zm38.106 4.988v17.877h4.455a8.51 8.51 0 0 0 6.064-2.659 8.947 8.947 0 0 0 2.447-6.28 8.798 8.798 0 0 0-2.402-6.322 8.358 8.358 0 0 0-6.107-2.614l-4.457-.002Zm4.455-5.611c8.307 0 14.591 6.443 14.591 14.55 0 8.107-6.284 14.55-14.591 14.55h-9.8a.713.713 0 0 1-.705-.725V6.818c0-.402.316-.727.705-.727l9.802-.034h-.002Zm33.127 7.109-3.448 9.559h6.889l-3.441-9.56Zm-5.47 14.961-2.257 6.364a.705.705 0 0 1-.705.5h-4.895a.697.697 0 0 1-.643-.305.738.738 0 0 1-.062-.722l10.578-27.589a.704.704 0 0 1 .704-.477h5.477a.704.704 0 0 1 .707.477l10.578 27.589a.741.741 0 0 1-.064.722.698.698 0 0 1-.643.303h-4.893a.705.705 0 0 1-.705-.5l-2.257-6.364h-10.92v.002Zm25.157-14.34c0-4.569 3.85-8.519 9.929-8.519a12.401 12.401 0 0 1 8.818 3.407.733.733 0 0 1 0 1.064l-2.711 2.761a.696.696 0 0 1-1 0 7.038 7.038 0 0 0-4.705-1.902c-2.431 0-4.229 1.447-4.229 3.118 0 5.4 14.37 2.284 14.37 12.675-.007 5.266-3.886 9.25-10.745 9.25a14.202 14.202 0 0 1-10.252-4.223.73.73 0 0 1 0-1.063l2.622-2.691a.7.7 0 0 1 1.023 0 8.945 8.945 0 0 0 6.198 2.59c3.038 0 5.041-1.663 5.041-3.747 0-5.402-14.364-2.284-14.364-12.678l.005-.043Zm46.531-7.144v10.918h-12.163V6.643a.716.716 0 0 0-.705-.723h-4.613a.712.712 0 0 0-.705.723v27.584c0 .4.318.725.705.725h4.613a.717.717 0 0 0 .705-.725v-11.09h12.154v11.09c0 .4.318.725.705.725h4.613a.716.716 0 0 0 .705-.725V6.643a.712.712 0 0 0-.705-.723h-4.613a.714.714 0 0 0-.696.723Zm-274.43 2.96C66.357 3.67 60.097-.024 53.287 0H1.768A1.773 1.773 0 0 0 .141 1.086a1.734 1.734 0 0 0 .382 1.9l11.222 11.137a5.31 5.31 0 0 0 3.746 1.538h36.318c2.589-.027 4.705 2.023 4.732 4.575.027 2.553-2.048 4.643-4.636 4.668h-25.04c-.71 0-1.353.427-1.63 1.082a1.734 1.734 0 0 0 .379 1.905l11.23 11.145a5.318 5.318 0 0 0 3.745 1.537h11.325c14.734 0 25.875-15.546 17.643-30.978"/>
</svg>
